check-network.svg

<svg  viewBox="0 0 24 24" fill="currentColor"><path  d="M15,20A1,1 0 0,0 14,19H13V17H17A2,2 0 0,0 19,15V5A2,2 0 0,0 17,3H7A2,2 0 0,0 5,5V15A2,2 0 0,0 7,17H11V19H10A1,1 0 0,0 9,20H2V22H9A1,1 0 0,0 10,23H14A1,1 0 0,0 15,22H22V20H15M8.25,10.08L9.41,8.92L11,10.5L14.59,6.92L15.75,8.33L11,13.08L8.25,10.08Z"/></svg>

<svg fill="currentColor" viewBox="0 0 24 24"><path d="M15 20a1 1 0 0 0-1-1h-1v-2h4a2 2 0 0 0 2-2V5a2 2 0 0 0-2-2H7a2 2 0 0 0-2 2v10a2 2 0 0 0 2 2h4v2h-1a1 1 0 0 0-1 1H2v2h7a1 1 0 0 0 1 1h4a1 1 0 0 0 1-1h7v-2zm-6.75-9.92 1.16-1.16L11 10.5l3.59-3.58 1.16 1.41L11 13.08z"/></svg>
